X:1
T:Title
%%score { ( 1 3 ) | ( 2 4 ) }
L:1/8
M:4/4
K:Bb
V:1 treble nm="Grand Piano"
V:3 treble 
V:2 bass 
V:4 bass 
V:1
 z4 z2[Q:1/4=100] [DF]2 | [DF]2 [B,D][CE] [DF]2 [FB][FB] | [Fc]2 [FB][Fc] [Fd]3 [B,FB] | %3
 [B,GB]2 [B,FA][B,EG] [B,DF]2 [B,FB][Fd] | [Fc]6 [EF]2 | [DF]2 [B,D][CE] [DF]2 [FB][FB] | %6
 [Fc]2 [FB]c d3 [DB] | [EB]2 [FA]G F2 Ac |[M:3/4] [DB]6 |[M:1/4] [FB]2 |[M:4/4] c2 cd e e2 c | %11
 d2 [DAd]>[DAc] [DGB]3 [D_AB] | [EGB]2 [B,FA][B,EG] [B,DF]2 [B,FB][Fd] | dc[=EB][EG] c3 F | %14
 [Fd]2 [Fd][Fc] [FB]2 [FA][FB] | .[Gc]2 [B,FA][B,EG] [DF]3 [DF] | [EG]2 [Ge][Ge] [Fd]2 [DB][Fd] | %17
[M:7/8] dcB A [DB]3 |] %18
V:2
 z4 z2 [B,,B,]2 | [B,,B,]2 [B,,F,][B,,F,] [B,,B,]2 [D,B,][D,B,] | [F,A,]2 [D,B,][F,A,] B,3 D, | %3
 E,2 E,E, B,,2 D,[B,,B,] | [F,A,]6 [F,A,]2 | [B,,B,]2 [B,,F,][B,,F,] [B,,B,]2 [D,B,][D,B,] | %6
 [F,A,]2 [D,B,][K:treble][F,A,F] [B,F]3[K:bass] [B,,_A,] | %7
 [E,G,]2 [E,A,][E,B,E] [F,B,D]2 [F,CE][F,A,E] |[M:3/4] [B,,B,]6 |[M:1/4] [D,B,]2 | %10
[M:4/4][K:treble] [F,A,F]2 [F,A,F][F,B,F] [F,CF] [F,CF]2 [F,A,F] | [B,F]2[K:bass] ^F,>F, G,3 =F, | %12
 E,2 E,E, B,,2 D,[B,,B,] | [C,B,]2 [C,G,][C,B,] [F,A,E]3 [F,A,] | %14
 [B,,B,]2 [B,,B,][C,A,] [D,B,]2 [E,C][D,B,] | [E,B,]2[K:treble][K:bass] z2 z4 | %16
 [E,B,]2 [E,B,][E,B,] [B,,B,]2 [B,,B,][B,,B,] |[M:7/8] [B,F][A,E][F,B,D] [F,CE] [B,,B,]3 |] %18
V:3
 x8 | x8 | x8 | x8 | x8 | x8 | x8 | x8 |[M:3/4] x6 |[M:1/4] x2 |[M:4/4] x8 | x8 | x8 | =E2 z2 z4 | %14
 x8 | x8 | x8 |[M:7/8] x7 |] %18
V:4
 x8 | x8 | x8 | x8 | x8 | x8 | x3[K:treble] x4[K:bass] x | x8 |[M:3/4] x6 |[M:1/4] x2 | %10
[M:4/4][K:treble] x8 | x2[K:bass] x6 | x8 | x8 | x8 | z[K:treble] B[K:bass]E,E, [B,,B,]3 [B,,B,] | %16
 x8 |[M:7/8] F,2 z z z z2 |] %18

